X:1
T:Eichendorff-Lieder
T:Die Zigeunerin
T:Eichendorff-Lieder
T:7. Die Zigeunerin
T:Hugo Wolf
T:Joseph von Eichendorff
T:OpenScore (CC0)
T:OpenScore (CC0)
T:OpenScore (CC0)
T:OpenScore (CC0)
T:OpenScore (CC0)
T:OpenScore (CC0)
T:OpenScore (CC0)
T:OpenScore (CC0)
T:OpenScore (CC0)
T:OpenScore (CC0)
C:Hugo Wolf
Z:Joseph von Eichendorff
Z:OpenScore (CC0)
%%score ( 1 2 ) { ( 3 4 ) | ( 5 6 ) }
L:1/8
Q:1/4=55
M:6/8
K:C
V:1 treble nm="Voice"
V:2 treble 
V:3 treble nm="Piano"
V:4 treble 
V:5 bass 
V:6 bass 
V:1
"^Mässig" z6 | z2 z z z!p! E | c c3/2 c/ ^G3/2 G/ G | A2 A B2 B/ B/ | G3/2 G/ G A3/2 A/ A | %5
w: |Am|Kreuz\- weg da lau\- sche ich,|wenn die Stern' und die|Feu\-- er im Wal\- de ver\-|
w: ||cross- way I stand and hark,|when no star and no|fire in our camp _ is|
 G3 E2 E | !>!c2 c ^G2 G | A A3/2 A/ B3 ||[K:Db]!<(! B c/=d/ e/f/!<)!!mf!!>(! g3/2 f/ e!>)! | %9
w: glom\- men, und|wo der er- ste|Hund bellt von fern,|da wird * mein * Bräut'- gam her-|
w: burn- ing, the|watch- dog's first low|bark from a- far|tells me * my * lov- er's re-|
 (d2 (3=c/e/d/ B3) |!p! (c2 (3c/e/d/ B3) |!pp! (d2 (3c/e/d/ B2)!p! e | B2!pp! e B2!p! e | %13
w: kom- * * * men.|La _ _ _ _|la _ _ _ _ la|la la la la|
w: turn- * * * ing.|La _ _ _ _|la _ _ _ _ la|la la la la|
!<(! (B f2-) f3!<)! |!>(! f3!>)!!p!!>(! F2 F-!>)! | F2!pp!!>(! F- F3- | %16
w: la _ _|_ la la|_ la. _|
w: la _ _|_ la la|_ la. _|
!ppp! F3!>)! z2 !fermata!z ||"^Etwas bewegter"[Q:1/4=60] z2[Q:1/4=65] z!p! __B B3/2 B/[Q:1/4=62] | %18
w: _|„Und als der|
w: _|"And as the|
{/__B} e e2 __B B3/2 B/ | e d/ c/ _B/ =A/ A- A/B/ c/ d/ | c2 B/E/ z2 z | %21
w: Tag graut', durch das Ge-|hölz sah ich ei- ne Ka- * * tze sich|schlin- gen, *|
w: day dawned, a black wild|cat I saw, slow- ly camp- * * ward a-|steal- ing *|
 z2 z z/!f! C/ F/ =G/ =A/ c/ | !>!e (!>!e- (3e/f/) g/{/g} !>!c3 | %23
w: ich schoss ihr auf den|nuss- brau- * * nen Pelz,|
w: she got it hot with|slug, ball _ _ and shot.|
 e/ d/ c/ B/ A/ G/ (F/_A/4G/4) F3/2 z/ | f/ e/ d/ c/ B/ A/ (=G/B/4A/4) G3/2 z/ | %25
w: wie tat die weit ü- ber- sprin- * * gen!|wie tat die weit ü- ber- sprin- * * gen!|
w: how that sent her back- ward reel- * * ing!|off she dart- ed spit- ting, squeal- * * ing!|
 _g/ f/ e/ d/ c/ g/ | f2- (f/F/ | g/) f/ e/ d/ c/ g/ f3- ||[K:C] f/ e/ d/ c/ B/ z/ z2 z || %29
w: Ha ha ha ha ha ha|ha _ _|_ ha ha ha ha ha ha|_ ha ha ha ha."|
w: Ha ha ha ha ha ha|ha _ _|_ ha ha ha ha ha ha|_ ha ha ha ha."|
[M:9/8] z2 z"^rit." z2[Q:1/4=60] z z2[Q:1/4=57] z[Q:1/4=63] || %30
w: |
w: |
[M:6/8][Q:1/4=55]!p!"^höhnisch" c c3/2 c/{/c} ^G G z | c c3/2 c/{/c} ^G2- G/ z/ | %32
w: Schad' nur ums Pelz\- lein,|du kriegst mich nit!  _|
w: You've scorched her skin, but|you've missed the cat!  _|
"^bestimmt"!f! A B3/2 B/ c2 z/[Q:1/4=57] d/4 e/4 | %33
w: mein Schatz muss sein wie die|
w: my love must be like the|
"^beschleunigend"[Q:1/4=60]!<(! (^f2!<)!!ff! !>!g) G2 !fermata!z[Q:1/4=65][Q:1/4=70] | %34
w: an- * dern:|
w: o- * thers:|
!p!"^keck"[Q:1/4=55] =f2 f/ f/ A A7/4 A/4 | f3/2 f/ f A z!f! A/ A/ | a3/2 f/ e{de} f3/2 d/ c | %37
w: braun und ein Stutz- bart auf|ung'- ri- schen Schnitt, und ein|fröh- li- ches Her- ze zum|
w: brown, with  mus- ta- chios, Hun-|gar- ian at that, and a|heart like his wan- der- ing|
!>(! (=B2 (3^A/c/B/)!>)! =A2 z |!p! (B2 (3^A/c/B/ =A2 e) | (B2 (3^A/c/B/!<(! (=A/F/-) F2)!<)! | %40
w: Wan- * * * dern.|La  _ _ _ _ _|la  _ _ _ _ _ _|
w: broth- * * * ers.|La  _ _ _ _ _|la  _ _ _ _ _ _|
 (B2 (3^A/c/B/ =A2 f) | (B2 (3^A/c/B/ =A2) B |!p! A2 !>!c A2 !>!_e | A2 !>!=e A2 !>!f | %44
w: la  _ _ _ _ _|la  _ _ _ _ la|la la la la|la la la la|
w: la  _ _ _ _ _|la  _ _ _ _ la|la la la la|la la la la|
!pp! (A a2-)"^ad lib."[Q:1/4=45] (a/4^g/4=g/4^f/4 =f/4e/4_e/4d/4 ^c/4=c/4B/4_B/4) | %45
w: la.  _ _ _ _ _ _ _ _ _ _ _ _ _|
w: la.  _ _ _ _ _ _ _ _ _ _ _ _ _|
[Q:1/4=55] A3- A2 z | z6 |] %47
w: _ _||
w: _ _||
V:2
 x6 | x2 x2 x E/ E/ | x6 | x6 | x6 | x6 | x6 | x6 ||[K:Db] x6 | x6 | x6 | x6 | x6 | x6 | x6 | x6 | %16
w: ||||||||||||||||
w: |By the|||||||||||||||
 x6 || x6 | x6 | x6 | x6 | x6 | x6 | x6 | x6 | x3 | x3 | x6 ||[K:C] x6 ||[M:9/8] x9 ||[M:6/8] x6 | %31
w: |||||||||||||||
w: |||||||||||||||
 x6 | x6 | x6 | x6 | x6 | x6 | x6 | x6 | x6 | x6 | x6 | x6 | x6 | x6 | x6 | x6 |] %47
w: ||||||||||||||||
w: ||||||||||||||||
V:3
!p!!<(! (E/4F/)!<)! z/4!p!!<(! (E/<F/-)!<)! F/ z/!pp! (F/4E/) z/4 (F/<E/-) E/ z/ | %1
!p!!<(! ((E/4F/))!<)! z/4!p!!<(! ((E/<F/-))!<)! F/ z/!pp! ((F/4E/)) z/4 ((F/<E/-)) E/ z/ | %2
!p!!<(! (E/4F/)!<)! z/4!p!!<(! (E/<F/-)!<)! F/ z/!pp! (F/4E/) z/4 (F/<E/-) E/ z/ | %3
 (E/4D/) z/4 (E/<D/-) D/ z/ (D/4_E/) z/4 (D/<E/-) E/ z/ | %4
[K:bass] (^D/4E/) z/4 (D/<E/-) E/ z/ (B,/4C/) z/4 (B,/<C/-) C/ z/ | %5
 (^A,/4B,/) z/4 (A,/<B,/-) B,/ z/ (^^F,/4^G,/) z/4 (F,/<G,/-) G,/ z/ | %6
[K:treble]!pp! (E/4F/) z/4 (E/<F/-) F/ z/ (F/4E/) z/4 (F/<E/-) E/ z/ | %7
 (E/4D/) z/4 (E/<D/-) D/ z/ (D/4_E/) z/4 (D/<E/-) E/ z/ || %8
[K:Db]!<(! (E/4=D/) z/4 (E/<D/-)!<)! D/ z/!mf! (!>!A/4_G/) z/4 (A/<G/-)!mp! G/ z/ | %9
 (B/4A/) z/4 (B/<A/-) A/ z/ (_c/4B/) z/4 (c/<B/-) B/ z/ | %10
!pp! (B/4A/) z/4 (B/<A/-) A/ z/ (_c/4B/) z/4 (c/<B/-) B/ z/ | %11
 (B/4A/) z/4 (B/<A/-) A/ z/ (_c/4B/) z/4 (c/<B/-) B/ z/ | %12
 (_c/4B/) z/4 (c/<B/-) B/ z/ (c/4B/) z/4 (c/<B/-) B/ z/ | %13
!<(! (_c/4B/) z/4 (c/<B/-)!<)! B/ z/ (=c/4B/) z/4 (c/<B/-) B/ z/ | %14
!pp! (G/4F/) z/4 (G/<F/-) F/ z/ (G/4F/) z/4 (G/<F/-) F/ z/ | %15
 (G/4F/) z/4 (G/<F/-) F/ z/ (G/4F/) z/4 (G/<F/-) F/ z/ | %16
 (G/4F/) z/4 (G/<F/-) F/!ppp! z/ (G/<F/-) !fermata!F2 || %17
!mf!{/a} (g/4f/4g/4a/4 g/).e'/ .e/.f/!p!{/a} g/z/4f/4 g-g/ z/ | %18
!mf!{/a} (g/4f/4g/4a/4 g/).e'/ .e/.f/!p!{/a} g/z/4f/4 g-g/ x/ | %19
{/a} (g/4f/4g/4a/4 g/).e'/ .e/.g/{/g} (f/4=e/4f/4=g/4 =a/).b/ .f/._f/ | %20
!<(!{/_f} (e/4=d/4e/4=f/4 =g/).a/.b/!<)!!mp!.e'/!<(!{/_c'} (b/4a/4b/4c'/4 =c'/).=d'/.e'/!<)!!mf!.a'/ | %21
!f!!>(!{/_c} (__B/4A/4B/4c/4 B/).g/!>)! .F/._F/!p!{/F} E/z/4=D/4 E-E/ z/ | %22
!f!!>(!{/_c} (__B/4A/4B/4c/4 B/).g/ .=C/!>)!._B,/!p! z/ C/!<(! [=A,F]/[C=G]/[F=A]/!mf![Gc]/!<)! | %23
!p!{/f} (e/4=d/4e/4f/4 g/).b/ .c/.e'/ z/ C/!<(! [=A,F]/[C=G]/[F=A]/[Gc]/!<)! | %24
!mf!{/g} (f/4e/4f/4g/4 f/).d'/ .d/.f'/!p! z/ .=G/!<(! .[=Ec]/.[G=d]/.[c=e]/.[d=g]/!<)! | %25
!mf! [cb]/ x2 x/ |!p! z/ C/!<(! [=A,F]/[C=G]/[F=A]/[Gc]/!<)! | %27
!mf! [cb]/ x/ x x z/ C/!<(! [=A,F]/[C=G]/[F=A]/[Gc]/!<)! || %28
[K:C]!f! .[ABf]/ .e/ .d/ .c/ .B/!>(! .=d/ .c/ .B/ .A/ .^G/ .[^^F=c]/ .[^GB]/!>)! || %29
[M:9/8]!p! [EA]/ [D^G]/ [CF]/ [B,E]/ [A,D]/ [^G,C]/!pp! x2 x!pp! z2 z || %30
[M:6/8]!<(! (E/4F/)!<)! z/4!<(! (E/<F/-)!<)! F/ z/!pp!{/F} (E/4^D/4E/4F/4 E/).e/ x | %31
!p!!<(! E/4F/!<)! z/4!<(! E/<F/-!<)! F/ z/!pp!{/F} (E/4^D/4E/4F/4 E/).e/ .c/.e'/ | %32
[K:bass]!mf! (^G,/4A,/) z/4 (^A,/<B,/-)!<(! B,/ z/ (B,/4C/) z/4 (^E/<^F/-) F/ z/ | %33
 (D/4_E/) z/4 (D/<E/-) E/!<)!!ff! z/[K:treble] (^f/4g/) z/4 (f/4g/) z/4"^lang" !fermata!z | %34
!p!!<(! (A/4_B/)!<)! z/4!<(! (A/4B/)!<)! z/4 z!pp! (^g/4a/) z/4 (g/4a/) z/4 z | %35
!p!!<(! (A/4_B/)!<)! z/4!<(! (A/4B/)!<)! z/4 z!pp! ((^g/4a/)) z/4 (g/4a/) z/4 z | %36
!f! (^c/4d/) z/4 (c/<d/-) d/ z/ (e/4f/) z/4 (e/<f/-) f/ z/ | %37
!p! (^A/4B/) z/4 (A/4"_dim."B/) z/4 z (^G/4=A/) z/4 (G/<A/-) A/ z/ | %38
 ((A/4^G/)) z/4 ((A/<G/-)) G/ z/ (G/4A/) z/4 (G/<A/-) A/ z/ | %39
 ((^^F/4^G/)) z/4 ((F/<G/-)) G/ z/ (B/4c/) z/4 (B/<c/-) c/ z/ | %40
 (A/4^G/) z/4 (A/<G/-) G/ z/ (G/4A/) z/4 (G/<A/-) A/ z/ | %41
 ((^^F/4^G/)) z/4 ((F/<G/-)) G/ z/ (B/4A/) z/4 (B/<A/-) A/ z/ | %42
!p!"_cresc." (((B/4A/))) z/4 (((B/<A/-))) A/ z/ ((B/4A/)) z/4 (B/<A/-) A/ z/ | %43
 ((((B/4A/)))) z/4 ((((B/<A/-)))) A/ z/!f! (((_B/4A/))) z/4 ((B/<A/-)) A/!ff! z/ | %44
!pp! ((((_B/4A/)))) z/4 (((B/<A/-))) A/ z/ ((B/4A/)) z/4 (B/<A/-) A/ z/ | %45
 (((((_B/4A/))))) z/4 ((((B/<A/-)))) A/ z/ (((=B/4A/))) z/4 ((B/<A/-)) A/ z/ | %46
 !arpeggio![ac'e'a'] z z z2 z |] %47
V:4
 A,3/4 x/4 A,3/2 x/ C3/4 x/4 C3/2 x/ | A,3/4 x/4 A,3/2 x/ C3/4 x/4 C3/2 x/ | %2
 A,3/4 x/4 A,3/2 x/ C3/4 x/4 C3/2 x/ | =A,3/4 x/4 A,3/2 x/ G,3/4 x/4 G,3/2 x/ | %4
[K:bass] =E,3/4 x/4 E,3/2 x/ F,3/4 x/4 F,3/2 x/ | G,3/4 x/4 G,3/2 x/ E,3/4 x/4 E,3/2 x/ | %6
[K:treble] A,3/4 x/4 A,3/2 x/ B,3/4 x/4 x x/ x/ | A,3/4 x/4 A,3/2 x/ B,3/4 x/4 x x/ x/ || %8
[K:Db] A,3/4 x/4 A,3/2 x/ E3/4 x/4 E3/2 x/ | _C3/4 x/4 C3/2 x/ D3/4 x/4 D3/2 x/ | %10
 _C3/4 x/4 C3/2 x/ D3/4 x/4 D3/2 x/ | _C3/4 x/4 C3/2 x/ D3/4 x/4 D3/2 x/ | %12
 D3/4 x/4 D3/2 x/ _F3/4 x/4 F3/2 x/ | D3/4 x/4 D3/2 x/ D3/4 x/4 D3/2 x/ | %14
 =A,3/4 x/4 A,3/2 x/ A,3/4 x/4 A,3/2 x/ | =A,3/4 x/4 A,3/2 x/ A,3/4 x/4 A,3/2 x/ | %16
 =A,3/4 x/4 A,3/2 x/ A,- A,2 || c/ z/ c/ z/ z d/ z/ d-d/ x/ | c/ z/ c/ z/ z d/ z/ d-d/ z/ | %19
 c/ z/ c/ z/ z d/ z/ d/ z/ z | =G/ z/ G/ z/ z =d/ z/ c/ z/ z | %21
 !>!D/ z/ !>!D/ z/ z =F,/ z/ F,-F,/ x/ | !>!D/ z/ !>!D/ z/ z x x2 | !>!B/ z/ !>!B/ z/ x4 | %24
 !>!B/ z/ !>!B/ z/ z4 | (_g/4f/4g/4a/4 g/).b/ .c/.g'/ | x3 | (_g/4f/4g/4a/4 g/).b/ .c/.g'/ x3 || %28
[K:C] x/ .[GB]/ .[FA]/ .[EG]/ .[DF]/ .[^D^F]/ .[EG]/ .[=D=F]/ .[CE]/ .[B,D]/ .^D/ .E/ || %29
[M:9/8] x9 ||[M:6/8] A,3/4 x/4 A,3/2 x/ C/ z/ C/ z/ .c/.e'/ | A,3/4 x/4 A,3/2 x/ C/ z/ C/ z/ x | %32
[K:bass] F,3/4 x/4 F,3/2 x/ ^F,3/4 x/4 C x | ^F,3/4 x/4 F,3/2 x/[K:treble] B3/4 x/4 B3/4 x5/4 | %34
 F3/4 x/4 F2 A3/4 x/4 A3/4 x5/4 | F/ x/ F3/4 x5/4 A3/4 x/4 A3/4 x5/4 | %36
 F3/4 x/4 F3/2 x/ F3/4 x/4 F3/2 x/ | D3/4 x/4 D3/4 x5/4 C3/4 x/4 C3/2 x/ | %38
 =D3/4 x/4 D3/2 x/ ^C3/4 x/4 C3/2 x/ | D3/4 x/4 D3/2 x/ C3/4 x/4 C3/2 x/ | %40
 D/ x/ D3/2 x/ ^C3/4 x/4 C3/2 x/ | D3/4 x/4 D3/2 x/ C3/4 x/4 C3/2 x/ | %42
 D3/4 x/4 D3/2 x/ _E3/4 x/4 E3/2 x/ | =E3/4 x/4 E3/2 x/ _B,3/4 x/4 B,3/2 x/ | %44
 A,3/4 x/4 A,3/2 x/ =D3/4 x/4 D3/2 x/ | ^C3/4 x/4 C3/2 x/ =C3/4 x/4 C3/2 x/ | x6 |] %47
V:5
 (E,/4^D,/) z/4 (E,/<D,/-) D,/ z/ (G,,/4_A,,/) z/4 (G,,/<A,,/-) A,,/ z/ | %1
 (E,/4^D,/) z/4 (E,/<D,/-) D,/ z/ (G,,/4_A,,/) z/4 (G,,/<A,,/-) A,,/ z/ | %2
 (E,/4^D,/) z/4 (E,/<D,/-) D,/ z/ (G,,/4_A,,/) z/4 (G,,/<A,,/-) A,,/ z/ | %3
 (B,,/4C,/) z/4 (B,,/<C,/-) C,/ z/ (C,/4B,,/) z/4 (C,/<B,,/-) B,,/ z/ | %4
 (_A,,/4G,,/) z/4 (A,,/<G,,/-) G,,/ z/ (_D,/4C,/) z/4 (D,/<C,/-) C,/ z/ | %5
 (_E,/4D,/) z/4 (E,/<D,/-) D,/ z/ (C,/4B,,/) z/4 (C,/<B,,/-) B,,/ z/ | %6
 (E,/4^D,/) z/4 (E,/<D,/-) D,/ z/ (G,,/4_A,,/) z/4 (G,,/<A,,/-) A,,/ z/ | %7
 (C,/4D,/) z/4 (C,/<D,/-) D,/ z/ (G,/4^F,/) z/4 (G,/<F,/-) F,/ z/ || %8
[K:Db] (=E,/4F,/) z/4 (E,/<F,/-) F,/ z/ (=G,/4!>(!A,/) z/4 (G,/<A,/-)!>)! A,/ z/ | %9
 (=E,/4F,/) z/4 (E,/<F,/-) F,/ z/ (E,/4F,/) z/4 (E,/<F,/-) F,/ z/ | %10
 (=E,/4F,/) z/4 (E,/<F,/-) F,/ z/ (E,/4F,/) z/4 (E,/<F,/-) F,/ z/ | %11
 (=E,/4F,/) z/4 (E,/<F,/-) F,/ z/ (E,/4F,/) z/4 (E,/<F,/-) F,/ z/ | %12
 (=E,/4F,/) z/4 (E,/<F,/-) F,/ z/ (=F,/4G,/) z/4 (F,/<G,/-) G,/ z/ | %13
 (=E,/4F,/) z/4 (E,/<F,/-) F,/ z/ (E,/4F,/) z/4 (E,/<F,/-) F,/ z/ | %14
 =B,,/4C,/ z/4 B,,/<C,/- C,/ z/ B,,/4C,/ z/4 B,,/<C,/- C,/ z/ | %15
 =B,,/4C,/ z/4 B,,/<C,/- C,/ z/ B,,/4C,/ z/4 B,,/<C,/- C,/ z/ | %16
 =B,,/4C,/ z/4 B,,/<C,/- C,/ z/ B,,/<C,/- !fermata!C,2 || %17
[K:treble] [Ae]/ z/ [Ae]/ z/ z [__B,E__B]/ z/ [B,EB]-[B,EB]/ z/ | %18
 [Ae]/ z/ [Ae]/ z/ z [__B,E__B]/ z/ [B,EB]-[B,EB]/ z/ | %19
 [Ae]/ z/ [Ae]/ z/ z [_B,D_B]/ z/ [B,DB]/ z/ z | %20
[K:bass] [E,DE]/ z/ [E,DE]/ z/ z [A,_FA]/ z/ [A,EA]/ z/ z | %21
 !>![E,,__B,,G,]/ z/ !>![E,,B,,G,]/ z/ z [=A,,C,=A,]/ z/ [A,,C,A,]-[A,,C,A,]/ z/ | %22
 x =A,,>B,,{/F,} E,/z/4=D,/4 [F,,A,,E,]-[F,,A,,E,]/ z/ | x2 z{/G,} F,/z/4=E,/4 F,2 | %24
 !>![G,,B,,G,]/ z/ !>![G,,B,,G,]/ z/ z{/F,} =E,/z/4^D,/4 E,2 | %25
 !>![_E,,B,,_G,]/ z/ !>![E,,B,,G,]/ z/ z |{/G,} F,/z/4=E,/4 F,2 | %27
 !>![E,,B,,G,]/ z/ !>![E,,B,,G,]/ z/ z!p!{/G,} F,/z/4=E,/4 [=A,,C,F,]3/2 [E,=A,C]/ || %28
[K:C] .[D,A,B,]/ x/ x x x x x || %29
[M:9/8] x3 [A,B,]/"^rit."!>(! [F,A,]/ z/ [C,A,]/ z/!>)! [B,,^G,]/ z2 z || %30
[M:6/8]!p! (E,/4^D,/) z/4 (E,/<D,/-) D,/ z/ (G,,/4_A,,/) z/4 G,,/<A,,/- A,,/ z/ | %31
 (E,/4^D,/) z/4 (E,/<D,/-) D,/ z/ (G,,/4_A,,/) z/4 (G,,/<A,,/-) A,,/ z/ | %32
 (D,/4^C,/) z/4 (D,/<C,/-) C,/ z/ (_E,/4D,/) z/4 (E,/<D,/-) D,/ z/ | %33
"^beschleunigend" (D,/4C,/) z/4 (D,/<C,/-) C,/ z/ (_E/4D/) z/4 (E/4D/) z/4 !fermata!z | %34
 (_B,/4A,/) z/4 (B,/4A,/) z/4 z (D/4^C/) z/4 (D/4C/) z/4 z | %35
 (_B,/4A,/) z/4 (B,/4A,/) z/4 z (D/4^C/) z/4 (D/4C/) z/4 z | %36
 (E/4D/) z/4 (E/<D/-) D/ z/ (A,/4_B,/) z/4 (A,/<B,/-) B,/ z/ | %37
 ((=A,/4^G,/)) z/4 ((A,/4G,/)) z/4 z ((F,/4E,/)) z/4 (F,/<E,/-) E,/ z/ | %38
!pp! ((^D,/4E,/)) z/4 ((D,/<E,/-)) E,/ z/ (F,/4E,/) z/4 (F,/<E,/-) E,/ z/ | %39
 ((=F,/4E,/)) z/4 ((F,/<E,/-)) E,/ z/ (E,/4^D,/) z/4 (E,/<D,/-) D,/ z/ | %40
 ((^D,/4E,/)) z/4 ((D,/<E,/-)) E,/ z/ (F,/4E,/) z/4 (F,/<E,/-) E,/ z/ | %41
 (((F,/4E,/))) z/4 (((F,/<E,/-))) E,/ z/ (^D,/4E,/) z/4 (D,/<E,/-) E,/ z/ | %42
 (((E,/4F,/))) z/4 (((E,/<F,/-))) F,/ z/ (=E,/4F,/) z/4 (E,/<F,/-) F,/ z/ | %43
 ((((^D,/4E,/)))) z/4 ((((D,/<E,/-)))) E,/ z/ (^C,/4=D,/) z/4 (C,/<D,/-) D,/ z/ | %44
 (((^D,/4E,/))) z/4 (((D,/<E,/-))) E,/ z/ (E,/4F,/) z/4 (E,/<F,/-) F,/ z/ | %45
!pp! ((((^D,/4E,/)))) z/4 ((((D,/<E,/-)))) E,/ z/ ((D,/4E,/)) z/4 ((D,/<E,/-)) E,/ z/ | %46
!ped! [A,CEA] z z!ped-up! z2 z |] %47
V:6
 A,,3/4 x/4 A,,3/2 x/ C,,3/4 x/4 C,,3/2 x/ | A,,3/4 x/4 A,,3/2 x/ C,,3/4 x/4 C,,3/2 x/ | %2
 A,,3/4 x/4 A,,3/2 x/ C,,3/4 x/4 C,,3/2 x/ | F,,3/4 x/4 F,,3/2 x/ _E,,3/4 x/4 E,,3/2 x/ | %4
 C,,3/4 x/4 C,,3/2 x/ F,,3/4 x/4 F,,3/2 x/ | G,,3/4 x/4 G,,3/2 x/ =E,,3/4 x/4 E,,3/2 x/ | %6
 A,,3/4 x/4 A,,3/2 x/ C,,3/4 x/4 C,, x/ x/ | F,,3/4 x/4 F,,3/2 x/ B,,3/4 x/4 B,, x/ x/ || %8
[K:Db] B,,3/4 x/4 B,,3/2 x/ !>!C,3/4 x/4 C,3/2 x/ | D,3/4 x/4 D,3/2 x/ B,,3/4 x/4 B,,3/2 x/ | %10
 D,/ x/ D, x B,,3/4 x/4 B,,3/2 x/ | D,/ x/ D, x B,,3/4 x/4 B,,3/2 x/ | %12
 B,,3/4 x/4 B,,3/2 x/ B,,3/4 x/4 B,,3/2 x/ | B,,3/4 x/4 B,,3/2 x/ B,,3/4 x/4 B,,3/2 x/ | %14
 F,,3/4 x/4 F,,3/2 x/ F,,3/4 x/4 F,,3/2 x/ | F,,3/4 x/4 F,,3/2 x/ F,,3/4 x/4 F,,3/2 x/ | %16
 F,,3/4 x/4 F,,3/2 x/ F,,- F,,2 ||[K:treble] x6 | x6 | x6 |[K:bass] x6 | x6 | %22
 !>![E,,=A,,G,]/ z/ !>![E,,G,]2 [F,,A,,]/ z/ x2 | %23
 !>![_G,,B,,_G,]/ z/ !>![G,,B,,G,]/ z/ x [=A,,C,]/ z/ [A,,C,]2 | x2 x [=G,,B,,]/ z/ [G,,B,,]2 | %25
 x3 | [=A,,C,]/ z/ [_A,,C,]2 | x3 [=A,,C,]/ z/ x2 ||[K:C] x6 || %29
[M:9/8] C/ B,/ A,/ =G,/ F,/ E,/ D,/ ^D,/ x/ E,/ x/ E,,/ x2 x || %30
[M:6/8] A,,3/4 x/4 A,,3/2 x/ C,,3/4 x/4 C,,3/2 x/ | A,,3/4 x/4 A,,3/2 x/ C,,3/4 x/4 C,,3/2 x/ | %32
 A,,3/4 x/4 A,,3/2 x/ _A,,3/4 x/4 A,, x | G,,3/4 x/4 G,,2 G,3/4 x/4 G,3/4 x5/4 | %34
 D,3/4 x/4 D,3/4 x5/4 F,3/4 x/4 F,3/4 x5/4 | D,3/4 x/4 D,3/4 x5/4 F,3/4 x/4 F,3/4 x5/4 | %36
 _B,3/4 x/4 B, x D,3/4 x/4 D,3/2 x/ | E,3/4 x/4 E, x A,,3/4 x/4 A,,3/2 x/ | %38
 A,,3/4 x/4 A,,3/2 x/ A,,3/4 x/4 A,,3/2 x/ | A,,3/4 x/4 A,,3/2 x/ A,,3/4 x/4 A,,3/2 x/ | %40
 A,,3/4 x/4 A,,3/2 x/ A,,3/4 x/4 A,,3/2 x/ | A,,3/4 x/4 A,,3/2 x/ A,,3/4 x/4 A,,3/2 x/ | %42
 A,,3/4 x/4 A,,3/2 x/ A,,3/4 x/4 A,,3/2 x/ | A,,3/4 x/4 A,,3/2 x/ A,,3/4 x/4 A,,3/2 x/ | %44
 A,,3/4 x/4 A,,3/2 x/ A,,3/4 x/4 A,,3/2 x/ | A,,3/4 x/4 A,,3/2 x/ A,,3/4 x/4 A,,3/2 x/ | x6 |] %47

